X:448
T:This Old Highway
C:Vic Blackwell arranged by Lee Marcus
N:Transcribed by Lee Marcus
R:bluegrass
L:1/8
Q:1/4=240
M:4/4
K:B
z2 BG FG B2 | c/d/d df d2 c/d/d | dc BG =AB cA | F/G/F EF GB cd | e2 =f/^f/f fg fe | 
c/d/d df d2 c/d/d | dc BG =AB cA | F/G/F E2 EF GB | e2 Bc B=A GF | EB, EF GF Gc | 
BG Bc e2 eg | ec BG Bc de | f2 =f/^f/f fg f2 | =f/^f/f fg f=d ^df | c/=d/c BF BB F/E/D | 
B,2 DF B=d ^df | b8 | 


